src/assets/healthPage/Invisalign/wave_1.svg

<svg height="227" viewBox="0 0 1440 227" width="1440" xmlns="http://www.w3.org/2000/svg"><g fill="none" opacity=".5"><path d="m0 199.032912 6.2-7.67962c6.1-7.392532 18.8-23.182405 30.8-38.254557 12.2-15.072152 25-30.862025 37-53.6137967 12.2-23.1824048 24-53.3267082 37-45.9341766 12.1 7.6796201 24 53.6137963 37 61.2934173 12 7.392531 24-22.7517722 37-19.1631647 11.9 3.5886075 24 42.3455687 37 49.7381007 11.8 7.67962 24-15.287468 36-11.483544 12.8 4.091012 25 34.235316 37 30.646708 12.7-3.588607 25-42.345569 37-49.7381 12.6-7.679621 25 15.287468 37 11.483544 12.5-4.091013 25-34.2353162 37-42.1302529 12.5-7.8949366 25 7.8949367 37 30.6467089 12.4 23.182404 25 53.326708 37 72.705189 12.3 19.37848 25 26.555695 37 3.803924 12.2-23.182405 25-76.293797 37-87.992658 12.2-11.2682272 24 18.876076 37 22.967089 12.1 3.803924 24-19.163165 37-7.67962 12 11.483544 24 57.41772 37 68.901265 11.9 11.483544 24-11.483545 37-49.738101 11.8-38.5416452 24-91.6530369 36-114.8354416 12.8-22.75177189 25-15.57455679 37 3.803924 12.7 19.3784807 25 49.5227841 37 49.7381006 12.6-.2153165 25-30.3596199 37-15.2874682 12.5 15.0721517 25 76.7962012 37 88.0644292 12.5 11.698861 25-27.058101 37-61.2934169 12.4-34.6659489 25-64.8102523 37-76.5091129 12.3-11.26822769 25-4.09101259 37 11.4835442 12.2 15.2874681 25 38.2545564 37 45.9341766 12.2 7.3925315 24 .2153164 37 15.2874681 12.1 15.0721517 24 53.8291129 37 65.0973409 12 11.698861 24-4.091013 37-11.483544 11.9-7.67962 24-7.67962 37-22.967088 11.8-15.5745572 24-45.7188606 36-34.4506329 12.8 11.6988607 25 64.8102519 37 61.2216449 12.7-3.588608 25-65.3126575 37-80.3848092 12.6-15.0721517 25 15.0721517 37 22.9670883 12.5 7.8949367 25-7.8949366 37-3.803924 12.5 3.803924 25 26.7710119 37 38.2545569 12.4 11.483544 25 11.483544 31 11.483544h6v91.868353h-6.2c-6.1 0-18.8 0-30.8 0-12.2 0-25 0-37 0-12.2 0-24 0-37 0-12.1 0-24 0-37 0-12 0-24 0-37 0-11.9 0-24 0-37 0-11.8 0-24 0-36 0-12.8 0-25 0-37 0-12.7 0-25 0-37 0-12.6 0-25 0-37 0-12.5 0-25 0-37 0-12.5 0-25 0-37 0-12.4 0-25 0-37 0-12.3 0-25 0-37 0-12.2 0-25 0-37 0-12.2 0-24 0-37 0-12.1 0-24 0-37 0-12 0-24 0-37 0-11.9 0-24 0-37 0-11.8 0-24 0-36 0-12.8 0-25 0-37 0-12.7 0-25 0-37 0-12.6 0-25 0-37 0-12.5 0-25 0-37 0-12.5 0-25 0-37 0-12.4 0-25 0-37 0-12.3 0-25 0-37 0-12.2 0-25 0-37 0-12.2 0-24 0-37 0-12.1 0-24 0-37 0-12 0-24 0-37 0-11.9 0-24 0-37 0-11.8 0-24 0-36 0-12.8 0-25 0-37 0-12.7 0-25 0-37 0-12.6 0-25 0-37 0-12.5 0-25 0-37 0-12.5 0-25 0-37 0-12.4 0-25 0-31 0h-6z" fill="#fbb253" opacity=".2"/><path d="m83 203.208866 5.1838889-3.940407c5.1002778-4.237796 15.7188891-11.672525 25.7522221-15.910321 10.200556-3.940406 20.902778-3.940406 30.936111-31.671947 10.200556-28.02893 20.066667-83.0459281 30.936111-103.1196976 10.116945-20.0737695 20.066667-3.7173647 30.936111 7.9551605 10.033334 12.118609 20.066667 19.5533384 30.936112 11.8955671 9.949722-7.9551605 20.066666-31.7462947 30.936111-15.910321 9.866111 16.1333629 20.066666 71.150361 30.1 99.179291 10.702222 27.731541 20.902777 27.731541 30.936111 27.731541 10.618611 0 20.902778 0 30.936111 3.940406 10.535 4.237796 20.902778 11.672525 30.936111-7.880813 10.451389-19.850728 20.902778-67.432996 30.936111-83.2689698 10.451389-16.1333629 20.902778.2230419 30.936111 3.9404066 10.367778 3.7173647 20.902778-3.7173647 30.936111-19.8507276 10.284167-15.8359737 20.902778-39.6271079 30.936111-35.6867013 10.200556 4.2377958 20.902778 35.4636594 30.936112 35.6867013 10.200555-.2230419 20.066666-31.4489055 30.936111-23.7911342 10.116944 7.9551605 20.066666 55.537429 30.936111 75.388157 10.033333 19.553338 20.066666 12.118609 30.936111-4.014754 9.949722-15.835974 20.066667-39.6271083 30.936111-59.4778359 9.866111-19.5533384 20.066667-35.9097432 30.1-27.7315408 10.702222 8.1782024 20.902778 39.404066 30.936111 39.6271079 10.618611-.2230419 20.902778-31.4489055 30.936111-19.7763803 10.535 12.118609 20.902778 67.1356071 30.936111 99.1049431 10.451389 31.969337 20.902778 39.404066 30.936111 15.835974 10.451389-24.014176 20.902778-79.0311739 30.936112-114.9409171 10.367777-35.4636595 20.902777-51.82006424 30.936111-55.53742896 10.284166-3.71736472 20.902777 3.71736472 30.936111 11.89556716 10.200555 8.1782023 20.902778 15.6129318 30.936111 19.8507276 10.200555 3.9404066 20.066667 3.9404066 30.936111 7.8808132 10.116944 4.2377958 20.066667 11.6725252 30.93611 43.6418618 10.03333 31.9693363 20.06667 86.9863343 30.93611 107.0601043 9.94972 20.073769 20.06667 3.717364 30.93611-19.850728 9.86611-24.014176 20.06667-55.24004 30.1-71.373403 10.70223-15.8359733 20.90278-15.8359733 30.93611-11.8955667 10.61862 4.2377958 20.90278 11.6725252 30.93612 0 10.535-12.118609 20.90277-43.3444726 30.93611-31.6719474 10.45139 12.118609 20.90277 67.1356071 30.93611 99.1049431 10.45139 31.969337 20.90278 39.404066 30.93611 39.627108 10.36778-.223042 20.90278-7.657771 25.91944-11.895567l5.01667-3.940406v47.582268h-5.18389c-5.10028 0-15.71889 0-25.75222 0-10.20056 0-20.90278 0-30.93611 0-10.20056 0-20.06667 0-30.93611 0-10.11695 0-20.06667 0-30.93611 0-10.03334 0-20.06667 0-30.93612 0-9.94972 0-20.06666 0-30.93611 0-9.86611 0-20.06666 0-30.1 0-10.70222 0-20.90277 0-30.93611 0-10.61861 0-20.90278 0-30.93611 0-10.534999 0-20.902777 0-30.93611 0-10.451389 0-20.902778 0-30.936111 0-10.451389 0-20.902778 0-30.936111 0-10.367778 0-20.902778 0-30.936111 0-10.284167 0-20.902778 0-30.936111 0-10.200556 0-20.902778 0-30.936112 0-10.200555 0-20.066666 0-30.936111 0-10.116944 0-20.066666 0-30.936111 0-10.033333 0-20.066666 0-30.936111 0-9.949722 0-20.066667 0-30.936111 0-9.866111 0-20.066667 0-30.1 0-10.702222 0-20.902778 0-30.936111 0-10.618611 0-20.902778 0-30.936111 0-10.535 0-20.902778 0-30.936111 0-10.451389 0-20.902778 0-30.936111 0-10.451389 0-20.902778 0-30.936112 0-10.367777 0-20.902777 0-30.936111 0-10.284166 0-20.902777 0-30.936111 0-10.200555 0-20.902778 0-30.936111 0-10.200555 0-20.066667 0-30.936111 0-10.116944 0-20.066667 0-30.936111 0-10.033333 0-20.066667 0-30.936111 0-9.949722 0-20.066667 0-30.936111 0-9.866111 0-20.066667 0-30.1 0-10.702223 0-20.902778 0-30.936111 0-10.618612 0-20.902778 0-30.936112 0-10.535 0-20.902777 0-30.936111 0-10.451389 0-20.902777 0-30.936111 0-10.451389 0-20.902778 0-30.936111 0-10.367778 0-20.9027777 0-25.9194443 0h-5.0166667z" fill="#00adef" opacity=".05"/></g></svg>

<?xml version="1.0" encoding="UTF-8"?>
<svg width="1440px" height="227px" viewBox="0 0 1440 227" version="1.1" xmlns="http://www.w3.org/2000/svg" xmlns:xlink="http://www.w3.org/1999/xlink">
    <title>wave</title>
    <g id="Design" stroke="none" stroke-width="1" fill="none" fill-rule="evenodd" opacity="0.5">
        <g id="Health---Invisalign" transform="translate(-281.000000, -10230.000000)" fill-rule="nonzero">
            <g id="Group-23" transform="translate(-17.000000, 2904.000000)">
                <g id="Group-22" transform="translate(398.000000, 7088.000000)">
                    <g id="wave" transform="translate(-100.000000, 238.000000)">
                        <path d="M0,199.032912 L6.2,191.353292 C12.3,183.96076 25,168.170887 37,153.098735 C49.2,138.026583 62,122.23671 74,99.4849383 C86.2,76.3025335 98,46.1582301 111,53.5507617 C123.1,61.2303818 135,107.164558 148,114.844179 C160,122.23671 172,92.0924068 185,95.6810143 C196.9,99.2696218 209,138.026583 222,145.419115 C233.8,153.098735 246,130.131647 258,133.935571 C270.8,138.026583 283,168.170887 295,164.582279 C307.7,160.993672 320,122.23671 332,114.844179 C344.6,107.164558 357,130.131647 369,126.327723 C381.5,122.23671 394,92.0924068 406,84.1974701 C418.5,76.3025335 431,92.0924068 443,114.844179 C455.4,138.026583 468,168.170887 480,187.549368 C492.3,206.927848 505,214.105063 517,191.353292 C529.2,168.170887 542,115.059495 554,103.360634 C566.2,92.0924068 578,122.23671 591,126.327723 C603.1,130.131647 615,107.164558 628,118.648103 C640,130.131647 652,176.065823 665,187.549368 C676.9,199.032912 689,176.065823 702,137.811267 C713.8,99.2696218 726,46.1582301 738,22.9758254 C750.8,0.224053512 763,7.40126861 775,26.7797494 C787.7,46.1582301 800,76.3025335 812,76.51785 C824.6,76.3025335 837,46.1582301 849,61.2303818 C861.5,76.3025335 874,138.026583 886,149.294811 C898.5,160.993672 911,122.23671 923,88.0013941 C935.4,53.3354452 948,23.1911418 960,11.4922812 C972.3,0.224053512 985,7.40126861 997,22.9758254 C1009.2,38.2632935 1022,61.2303818 1034,68.910002 C1046.2,76.3025335 1058,69.1253184 1071,84.1974701 C1083.1,99.2696218 1095,138.026583 1108,149.294811 C1120,160.993672 1132,145.203798 1145,137.811267 C1156.9,130.131647 1169,130.131647 1182,114.844179 C1193.8,99.2696218 1206,69.1253184 1218,80.3935461 C1230.8,92.0924068 1243,145.203798 1255,141.615191 C1267.7,138.026583 1280,76.3025335 1292,61.2303818 C1304.6,46.1582301 1317,76.3025335 1329,84.1974701 C1341.5,92.0924068 1354,76.3025335 1366,80.3935461 C1378.5,84.1974701 1391,107.164558 1403,118.648103 C1415.4,130.131647 1428,130.131647 1434,130.131647 L1440,130.131647 L1440,222 L1433.8,222 C1427.7,222 1415,222 1403,222 C1390.8,222 1378,222 1366,222 C1353.8,222 1342,222 1329,222 C1316.9,222 1305,222 1292,222 C1280,222 1268,222 1255,222 C1243.1,222 1231,222 1218,222 C1206.2,222 1194,222 1182,222 C1169.2,222 1157,222 1145,222 C1132.3,222 1120,222 1108,222 C1095.4,222 1083,222 1071,222 C1058.5,222 1046,222 1034,222 C1021.5,222 1009,222 997,222 C984.6,222 972,222 960,222 C947.7,222 935,222 923,222 C910.8,222 898,222 886,222 C873.8,222 862,222 849,222 C836.9,222 825,222 812,222 C800,222 788,222 775,222 C763.1,222 751,222 738,222 C726.2,222 714,222 702,222 C689.2,222 677,222 665,222 C652.3,222 640,222 628,222 C615.4,222 603,222 591,222 C578.5,222 566,222 554,222 C541.5,222 529,222 517,222 C504.6,222 492,222 480,222 C467.7,222 455,222 443,222 C430.8,222 418,222 406,222 C393.8,222 382,222 369,222 C356.9,222 345,222 332,222 C320,222 308,222 295,222 C283.1,222 271,222 258,222 C246.2,222 234,222 222,222 C209.2,222 197,222 185,222 C172.3,222 160,222 148,222 C135.4,222 123,222 111,222 C98.5,222 86,222 74,222 C61.5,222 49,222 37,222 C24.6,222 12,222 6,222 L0,222 L0,199.032912 Z" id="Path" fill="#FBB253" opacity="0.200000003"></path>
                        <path d="M83,203.208866 L88.1838889,199.268459 C93.2841667,195.030663 103.902778,187.595934 113.936111,183.358138 C124.136667,179.417732 134.838889,179.417732 144.872222,151.686191 C155.072778,123.657261 164.938889,68.6402629 175.808333,48.5664934 C185.925278,28.4927239 195.875,44.8491287 206.744444,56.5216539 C216.777778,68.6402629 226.811111,76.0749923 237.680556,68.417221 C247.630278,60.4620605 257.747222,36.6709263 268.616667,52.5069 C278.482778,68.6402629 288.683333,123.657261 298.716667,151.686191 C309.418889,179.417732 319.619444,179.417732 329.652778,179.417732 C340.271389,179.417732 350.555556,179.417732 360.588889,183.358138 C371.123889,187.595934 381.491667,195.030663 391.525,175.477325 C401.976389,155.626597 412.427778,108.044329 422.461111,92.2083552 C432.9125,76.0749923 443.363889,92.4313971 453.397222,96.1487618 C463.765,99.8661265 474.3,92.4313971 484.333333,76.2980342 C494.6175,60.4620605 505.236111,36.6709263 515.269444,40.6113329 C525.47,44.8491287 536.172222,76.0749923 546.205556,76.2980342 C556.406111,76.0749923 566.272222,44.8491287 577.141667,52.5069 C587.258611,60.4620605 597.208333,108.044329 608.077778,127.895057 C618.111111,147.448395 628.144444,140.013666 639.013889,123.880303 C648.963611,108.044329 659.080556,84.2531947 669.95,64.4024671 C679.816111,44.8491287 690.016667,28.4927239 700.05,36.6709263 C710.752222,44.8491287 720.952778,76.0749923 730.986111,76.2980342 C741.604722,76.0749923 751.888889,44.8491287 761.922222,56.5216539 C772.457222,68.6402629 782.825,123.657261 792.858333,155.626597 C803.309722,187.595934 813.761111,195.030663 823.794444,171.462571 C834.245833,147.448395 844.697222,92.4313971 854.730556,56.5216539 C865.098333,21.0579944 875.633333,4.70158966 885.666667,0.984224942 C895.950833,-2.73313978 906.569444,4.70158966 916.602778,12.8797921 C926.803333,21.0579944 937.505556,28.4927239 947.538889,32.7305197 C957.739444,36.6709263 967.605556,36.6709263 978.475,40.6113329 C988.591944,44.8491287 998.541667,52.2838581 1009.41111,84.2531947 C1019.44444,116.222531 1029.47778,171.239529 1040.34722,191.313299 C1050.29694,211.387068 1060.41389,195.030663 1071.28333,171.462571 C1081.14944,147.448395 1091.35,116.222531 1101.38333,100.089168 C1112.08556,84.2531947 1122.28611,84.2531947 1132.31944,88.1936013 C1142.93806,92.4313971 1153.22222,99.8661265 1163.25556,88.1936013 C1173.79056,76.0749923 1184.15833,44.8491287 1194.19167,56.5216539 C1204.64306,68.6402629 1215.09444,123.657261 1225.12778,155.626597 C1235.57917,187.595934 1246.03056,195.030663 1256.06389,195.253705 C1266.43167,195.030663 1276.96667,187.595934 1281.98333,183.358138 L1287,179.417732 L1287,227 L1281.81611,227 C1276.71583,227 1266.09722,227 1256.06389,227 C1245.86333,227 1235.16111,227 1225.12778,227 C1214.92722,227 1205.06111,227 1194.19167,227 C1184.07472,227 1174.125,227 1163.25556,227 C1153.22222,227 1143.18889,227 1132.31944,227 C1122.36972,227 1112.25278,227 1101.38333,227 C1091.51722,227 1081.31667,227 1071.28333,227 C1060.58111,227 1050.38056,227 1040.34722,227 C1029.72861,227 1019.44444,227 1009.41111,227 C998.876111,227 988.508333,227 978.475,227 C968.023611,227 957.572222,227 947.538889,227 C937.0875,227 926.636111,227 916.602778,227 C906.235,227 895.7,227 885.666667,227 C875.3825,227 864.763889,227 854.730556,227 C844.53,227 833.827778,227 823.794444,227 C813.593889,227 803.727778,227 792.858333,227 C782.741389,227 772.791667,227 761.922222,227 C751.888889,227 741.855556,227 730.986111,227 C721.036389,227 710.919444,227 700.05,227 C690.183889,227 679.983333,227 669.95,227 C659.247778,227 649.047222,227 639.013889,227 C628.395278,227 618.111111,227 608.077778,227 C597.542778,227 587.175,227 577.141667,227 C566.690278,227 556.238889,227 546.205556,227 C535.754167,227 525.302778,227 515.269444,227 C504.901667,227 494.366667,227 484.333333,227 C474.049167,227 463.430556,227 453.397222,227 C443.196667,227 432.494444,227 422.461111,227 C412.260556,227 402.394444,227 391.525,227 C381.408056,227 371.458333,227 360.588889,227 C350.555556,227 340.522222,227 329.652778,227 C319.703056,227 309.586111,227 298.716667,227 C288.850556,227 278.65,227 268.616667,227 C257.914444,227 247.713889,227 237.680556,227 C227.061944,227 216.777778,227 206.744444,227 C196.209444,227 185.841667,227 175.808333,227 C165.356944,227 154.905556,227 144.872222,227 C134.420833,227 123.969444,227 113.936111,227 C103.568333,227 93.0333333,227 88.0166667,227 L83,227 L83,203.208866 Z" id="Path" fill="#00ADEF" opacity="0.049999997"></path>
                    </g>
                </g>
            </g>
        </g>
    </g>
</svg>
